X:049
L:1/16
M:2/4
K:D
fg | a2fa g2eg | f2df edA2 | =c2c2 e=fge | =c2c2 e=fge |
a2fa g2eg | f2df ecA2 | d2d2 efge | f2d2 d2 :|]

